packages/tokens/icons/sign/size16Px.svg

<svg viewBox="0 0 16 16" fill="none" xmlns="http://www.w3.org/2000/svg" width="1em" height="1em"><path d="M3.5 4.00007C3.5 3.72393 3.72386 3.50007 4 3.50007L11.679 3.5C11.7834 3.5 11.8851 3.53267 11.97 3.59343L13.1881 4.46534L13.4792 4.05876L13.1881 4.46534C13.4494 4.65234 13.469 5.03367 13.2283 5.24649L11.9525 6.37458C11.8611 6.45539 11.7433 6.5 11.6213 6.5L4.00001 6.50007C3.72386 6.50007 3.5 6.27621 3.5 6.00007L3.5 4.00007Z" stroke="currentColor"/><path d="M12.5 10.0001C12.5 9.72393 12.2761 9.50007 12 9.50007L4.32102 9.5C4.21663 9.5 4.11487 9.53267 4.02999 9.59343L2.81187 10.4653L2.52085 10.0588L2.81187 10.4653C2.55062 10.6523 2.53101 11.0337 2.7717 11.2465L4.04751 12.3746C4.13891 12.4554 4.2567 12.5 4.37871 12.5L12 12.5001C12.2761 12.5001 12.5 12.2762 12.5 12.0001L12.5 10.0001Z" stroke="currentColor"/></svg>

<svg xmlns="http://www.w3.org/2000/svg" fill="none" viewBox="0 0 16 16" width="1em" height="1em"><path stroke="currentColor" d="M3.5 4a.5.5 0 0 1 .5-.5h7.679a.5.5 0 0 1 .291.093l1.218.872.291-.406-.29.406a.5.5 0 0 1 .04.781l-1.276 1.129a.5.5 0 0 1-.332.125H4a.5.5 0 0 1-.5-.5V4Zm9 6a.5.5 0 0 0-.5-.5H4.321a.5.5 0 0 0-.291.093l-1.218.872-.291-.406.29.406a.5.5 0 0 0-.04.781l1.277 1.129a.5.5 0 0 0 .33.125H12a.5.5 0 0 0 .5-.5v-2Z"/></svg>
